X: 20412
T: John Donoghue's
R: jig
M: 6/8
K: Amajor
|:e3 ecA Aee ecA|dfd cec BcB Bcd|
efe ecA cef ecA|dfd cec BcB A3:|
|:a2 f e3 efe cBA|dfd cec BcB B2 g|
a2 f e3 efe cBA|dfd cec BcB A3:|

